X:32737
T:Bonaparte's Retreat 32737
N:tune id: 2372; setting id: 32737
Z:JACKB
S:thesession.org
R:march
M:4/4
K:Gmajor
|:DGGF GBAG|FAde fefg|agfa gfde|fdcA dBcA|
DGGF GBAG|FAde fefg|agfd cAFG|AGGF G2:|
|:de|fefg f2 (3def|gfga g2 de|fefg afge|fdcA dBcA|
fefg f2 (3def|gfga g2 fg|abag fgaf|g3a g2 fg|
a2 ab agfd|fefa gfde|fefg afge|fdcA dBcA|
DGGF GBAG|FAde fefg|agfa gfde|fdcA dBcA|
DGGF GBAG|FAde fefg|agfd cAFG|AGGF G2||


